!!!SOCIAL_FUNCTION:	songs of the bear dance
!!!PDT:	1922
!!!OTL: No_13_Bear_Dance_Song_(i).krn
!!!REG: Southwest
!!!LANG: Non-Tone
!!!LING_GROUP: Uto-Aztecan
**kern
*staff1
=
*clefF4
*k[b-e-a-d-g-]
*M2/4
16f\
=1
12f\L
12d-\
12e-\J
8.A-\L
16e-\Jk
=2
8.d-\L
16F\Jk
16A-\LK
8.A-\J
=3
16A-\LK
8.A-\J
8.A-\L
16f\Jk
=4
12f\L
12d-\
12e-\J
8.A-\L
16e-\Jk
=5
8.d-\L
16F\Jk
16A-\LK
8.A-\J
=6
8A-\L
[8A-\J
8.A-\L]
16B-\Jk
=7
12B-\L
12F\
12B-\J
8.A-\L
16B-\Jk
=8||
*M3/4
16A-\LK
8.A-\J
4.A-\
8B-\
=9||
*M2/4
12B-\L
12F\
12B-\J
8.A-\L
16B-\Jk
=10||
*M3/4
8A-\L
8A-\J
4..A-\
16r
==
*-
